X:22
T:Kadrilj ur Vetlandasamlingen
T:(M39-22)
R:Kadrilj
O:Vetlanda, Småland
B:Vetlandasamlingen
N:SMUS M39
N:ca 1850
Z:Till abc Jonas Brunskog
M:2/4
L:1/16
K:C
G2|c2c2c2e2|d2d2d2f2|e2e2d2d2|c6 G2|
CEGc ecGE|DGBd fdBG|Gcec GBdB|cege c2:|
|:G2|e2e2 e2de|f4 f4|d2d2 d2cd|e4 e4|
CEGc ecGE|DGBd fdBG|Gcec GBdB|cege c2:|

